icon-themes/sifr_svg/cmd/lc_entirecell.svg

<svg viewBox="0 0 24 24" xmlns="http://www.w3.org/2000/svg"><g fill="#555753"><path d="m1 2v9h1v10h21v-18h-12v-1zm1 1h8v7h-8zm9 2h4v4h-4zm5 0h5v4h-5zm-5 5h4v4h-5v-3h1zm5 0h5v4h-5zm-12 1h5v3h-5zm0 4h5v4h-5zm6 0h5v4h-5zm6 0h5v4h-5z"/><path d="m2 3v7h8v-7z" opacity=".35"/></g></svg>

<svg xmlns="http://www.w3.org/2000/svg" viewBox="0 0 24 24">
 <path
     style="fill:#555753"
     d="M 1 2 L 1 11 L 2 11 L 2 21 L 23 21 L 23 3 L 11 3 L 11 2 L 1 2 z M 2 3 L 10 3 L 10 10 L 2 10 L 2 3 z M 11 5 L 15 5 L 15 9 L 11 9 L 11 5 z M 16 5 L 21 5 L 21 9 L 16 9 L 16 5 z M 11 10 L 15 10 L 15 14 L 10 14 L 10 11 L 11 11 L 11 10 z M 16 10 L 21 10 L 21 14 L 16 14 L 16 10 z M 4 11 L 9 11 L 9 14 L 4 14 L 4 11 z M 4 15 L 9 15 L 9 19 L 4 19 L 4 15 z M 10 15 L 15 15 L 15 19 L 10 19 L 10 15 z M 16 15 L 21 15 L 21 19 L 16 19 L 16 15 z "
     />
 <path
     style="fill:#555753;opacity:0.35"
     d="M 2 3 L 2 10 L 10 10 L 10 3 L 2 3 z "
     />
 </svg>
